X:1
T:Snow
T:Snow
T:Winter Stories
T:Fabrizio Paterlini
T:transcribed by Pierre Gringoire
C:Fabrizio Paterlini
Z:PG
%%score { 1 | 2 }
L:1/8
Q:1/4=120
M:4/4
K:F
V:1 treble nm="Фортепиано" snm="Ф-но"
V:2 bass 
V:1
"^Allegro""_legato, con pedale" (3!>!dDF (3!>!ADF (3!>!GDF (3!>!ADF | (3cCF (3ACF (3GCF (3ACF | %2
 (3cCE (3ACE (3GCE (3ACE | (3dDF (3ADF (3dDF (3ADF | (3dDF (3ADF (3GDF (3ADF | %5
 (3cCF (3ACF (3GCF (3ACF | (3cCE (3ACE (3GCE (3ACE |: (3dDF (3ADF"_rall." (3dDF (3ADF :| %8
"^a tempo"!mf! (d2 A2 d2) (3(Ade | f2 c2 f2) (3(fgf | e2 G2 e2) (3(efe | (3:2:2e d2- d6) | %12
 (d2 A2 d2) (3(Ade | f2 c2 f2) (3(fgf | e2 G2 e2) (3(efe | d8) | (B2 D2 B2) (3(BcB | %17
 A2 C2 A2) (3(AGF | E2 G,2 E2) (3(EFE | E4) (3(EDE (3FGA | B2 D2 B2) (3(BcB | A2 C2 A2) (3(AGF | %22
 E2 G,2 E2) (3(EFE | D8) |[K:treble+8]!mp! (3!>!dDF (3!>!ADF (3!>!GDF (3!>!ADF | %25
 (3cCF (3ACF (3GCF (3ACF | (3cCE (3ACE (3GCE (3ACE | (3dDF (3ADF (3dDF (3ADF | %28
 (3dDF (3ADF (3GDF (3ADF | (3cCF (3ACF (3GCF (3ACF | (3cCE (3ACE (3GCE (3ACE |: %31
 (3dDF (3ADF"^cresc." (3dDF (3ADF :|!mf! (d2 A2 d2) (3(Ade | f2 c2 f2) (3(fgf | e2 G2 e2) (3(efe | %35
 (3:2:2e d2- d6) | (d2 A2 d2) (3(Ade | f2 c2 f2) (3(fgf | e2 G2 e2) (3(efe | d8) | %40
 (B2 D2 B2) (3(BcB | A2 C2 A2) (3(AGF | E2 G,2 E2) (3(EFE | E8) |[K:treble] (B2 D2 B2) (3(BcB | %45
 A2 C2 A2) (3(AGF | E2 G,2 E2) (3(EFE | D8) |[K:treble+8] (3!>!dDF (3!>!ADF (3!>!GDF (3!>!ADF | %49
 (3cCF (3ACF (3GCF (3ACF | (3cCE (3ACE (3GCE (3ACE | (3dDF (3ADF (3dDF (3ADF | %52
 (3dDF (3ADF (3GDF (3ADF | (3cCF (3ACF (3GCF (3ACF | (3cCE (3ACE (3GCE (3ACE |: %55
 (3dDF (3ADF"_cresc." (3dDF (3ADF :|!mf! (B2 G2 B2 G2) | (A2 F2 A2 F2) | (G2 E2 G2 E2) | %59
 (F2 D2 F2 D2) |[K:treble] (B2 G2 B2 G2) | (A2 F2 A2 F2) | (G2 E2 G2 E2) | (E2 D2 D4) | %64
 (3!>!dDF (3!>!ADF (3!>!GDF (3!>!ADF | (3cCF (3ACF (3GCF (3ACF | (3cCE (3ACE (3GCE (3ACE | %67
 (3dDF (3ADF (3dDF (3ADF | (3dDF (3ADF (3GDF (3ADF | (3cCF (3ACF (3GCF (3ACF | %70
 (3cCE (3ACE (3GCE (3ACE |: (3dDF (3ADF"^crescendo" (3dDF (3ADF :| %72
V:2
!mp! D,4 A,4 | F,4 A,4 | A,,4 A,4 | B,,4 B,4 | D,4 A,4 | F,4 A,4 | A,,4 A,4 |: B,,4 B,4 :| %8
 (3D,A,F (3A,FA, (3D,A,F (3A,FA, | (3F,CA (3CAC (3F,CA (3CAC | (3C,G,E (3G,EG, (3C,G,E (3G,EG, | %11
 (3B,,F,D (3F,DF, B,,4 | (3D,A,F (3A,FA, (3D,A,F (3A,FA, | (3F,CA (3CAC (3F,CA (3CAC | %14
 (3C,G,E (3G,EG, (3C,G,E (3G,EG, | (3B,,F,D (3F,DF, B,,4 | (3G,,D,B, (3D,B,D, (3G,,D,B, (3D,B,D, | %17
 (3F,,C,A, (3C,A,C, (3F,,C,A, (3C,A,C, | (3C,,G,,E, (3G,,E,G,, (3C,,G,,E, (3G,,E,G,, | %19
 (3D,,A,,F, (3A,,F,A,, (3D,,A,,F, (3A,,F,A,, | (3G,,D,B, (3D,B,D, (3G,,D,B, (3D,B,D, | %21
 (3F,,C,A, (3C,A,C, (3F,,C,A, (3C,A,C, | (3C,,G,,E, (3G,,E,G,, (3C,,G,,E, (3G,,E,G,, | %23
 (3D,,A,,F, (3A,,F,A,, D,,4 |[K:] D4 A4 | F4 A4 | A,4 A4 | B,4 B4 | D4 A4 | F4 A4 | A,4 A4 |: %31
 B,4 B4 :| (3DAf (3AfA (3DAf (3AfA | (3Fca (3cac (3Fca (3cac | (3CGe (3GeG (3CGe (3GeG | %35
 (3B,Fd (3FdF B,4 | (3DAf (3AfA (3DAf (3AfA | (3Fca (3cac (3Fca (3cac | (3CGe (3GeG (3CGe (3GeG | %39
 (3B,Fd (3FdF B,4 | (3G,DB (3DBD (3G,DB (3DBD | (3F,CA (3CAC (3F,CA (3CAC | %42
[K:bass] (3C,G,E (3G,EG, (3C,G,E (3G,EG, | (3D,A,F (3A,FA, D,4 | %44
 (3G,,D,B, (3D,B,D, (3G,,D,B, (3D,B,D, | (3F,,C,A, (3C,A,C, (3F,,C,A, (3C,A,C, | %46
 (3C,,G,,E, (3G,,E,G,, (3C,,G,,E, (3G,,E,G,, | (3D,,A,,F, (3A,,F,A,, D,,4 | %48
 (3D,,A,,F, (3A,,F,A,, (3D,,A,,F, (3A,,F,A,, | (3F,,C,A, (3C,A,C, (3F,,C,A, (3C,A,C, | %50
 (3A,,E,C (3E,CE, (3A,,E,C (3E,CE, | (3B,,F,D (3F,DF, (3B,,F,D (3F,DF, | %52
 (3D,,A,,F, (3A,,F,A,, (3D,,A,,F, (3A,,F,A,, | (3F,,C,A, (3C,A,C, (3F,,C,A, (3C,A,C, | %54
 (3A,,E,C (3E,CE, (3A,,E,C (3E,CE, |: (3B,,F,D (3F,DF, (3B,,F,D (3F,DF, :| %56
 (3G,,D,B, (3D,B,D, (3G,,D,B, (3D,B,D, | (3F,,C,A, (3C,A,C, (3F,,C,A, (3C,A,C, | %58
 (3C,,G,,E, (3G,,E,G,, (3C,,G,,E, (3G,,E,G,, | (3D,,A,,F, (3A,,F,A,, (3D,,A,,F, (3A,,F,A,, | %60
 (3G,,D,B, (3D,B,D, (3G,,D,B, (3D,B,D, | (3F,,C,A, (3C,A,C, (3F,,C,A, (3C,A,C, | %62
 (3C,,G,,E, (3G,,E,G,, (3C,,G,,E, (3G,,E,G,, | (3D,,A,,F, (3A,,F,A,, D,,4 | %64
 (3D,,A,,F, (3A,,F,A,, (3D,,A,,F, (3A,,F,A,, | (3F,,C,A, (3C,A,C, (3F,,C,A, (3C,A,C, | %66
 (3A,,E,A, (3E,A,E, (3A,,E,A, (3E,A,E, | (3B,,F,B, (3F,B,F, (3B,,F,B, (3F,B,F, | %68
 (3D,,A,,F, (3A,,F,A,, (3D,,A,,F, (3A,,F,A,, | (3F,,C,A, (3C,A,C, (3F,,C,A, (3C,A,C, | %70
 (3A,,E,A, (3E,A,E, (3A,,E,A, (3E,A,E, |: (3B,,F,B, (3F,B,F, (3B,,F,B, (3F,B,F, :| %72

